X:1
T:Title
%%score { 1 | 2 }
L:1/8
M:6/8
K:C
V:1 treble nm="Grand Piano"
V:2 bass 
V:1
 z3 z2[Q:1/4=100] [EG] | [EG]2 [Ec] [Ec]2 [GB] | [GB]2 A A2 A | D2 G G2 F |[M:5/8] F2 E E2 | %5
[M:1/8] [EG] |[M:3/4] [Ec]2 [Ge] [Ge]2 [Fd] | [Fd]2 [Fc][Ac] [GB]A | G>G G B2 A | %9
 [EG][Ec]- [Ec]3 z | [EG]>[EG] [EG] .[EG]3 | A>A A .A3 | G>G G G2 F | E[EG]- [EG]3 z | %14
 [Ec]>[EG] [EG] .[EG]3 | c>A A .A3 | B>B B B2 A |[M:5/8] [EG][Ec]- [Ec]3 |] %18
V:2
 z3 z2 [C,C] | [C,C]2 [C,G,] [C,G,]2 [C,C] | [F,C]2 [F,CF] [F,CF]2 [F,CF] | %3
 [G,B,]2 [G,B,D] [G,B,D]2 [G,D] |[M:5/8] [C,G,D]2 [C,G,C] [C,G,C]2 |[M:1/8] [C,C] | %6
[M:3/4] [C,C]2 [C,C] [C,C]2 [C,G,] | [F,A,]2 [F,A,][F,C] [F,C][K:treble][F,CF] | %8
 [G,CE]>[G,CE] [G,CE] [G,DF]2 [G,B,F] | [C,C][C,G,]- [C,G,]3 z | [C,C]>[C,C] [C,C] .[C,C]3 | %11
 [F,CF]>[F,CF] [F,CF] .[F,CF]3 | [G,B,D]>[G,CE] [G,DF][K:bass] [G,CE]2 [G,B,D] | %13
 [C,G,C][C,C]- [C,C]3 z | [C,G,]>[C,C] [C,C] .[C,C]3 | [F,A,F]>[F,CF] [F,CF] .[F,CF]3 | %16
 [G,F]>[G,B,F] [G,DF] [G,DF]2 [G,B,F] |[M:5/8][K:bass] [C,C][C,G,]- [C,G,]3 |] %18

